icons/tokens/0x5334e150B938dd2b6bd040D9c4a03Cff0cED3765/logo.svg

<svg width="32" height="32" viewBox="0 0 32 32" fill="none" xmlns="http://www.w3.org/2000/svg">
<path fill-rule="evenodd" clip-rule="evenodd" d="M32 15.9999C32 13.9059 31.5834 11.8118 30.7821 9.87706C29.9805 7.94234 28.7942 6.16698 27.3136 4.68634C25.833 3.20538 24.0576 2.01946 22.1229 1.21786C20.1882 0.416579 18.0941 -6.10352e-05 16 -6.10352e-05C13.9059 -6.10352e-05 11.8115 0.416579 9.8768 1.21786C7.94208 2.01946 6.16704 3.20538 4.68608 4.68634C3.20544 6.16698 2.0192 7.94234 1.21792 9.87706C0.41632 11.8118 0 13.9059 0 15.9999C0 18.094 0.41632 20.1881 1.21792 22.1228C2.0192 24.0575 3.20544 25.8329 4.68608 27.3139C6.16704 28.7945 7.94208 29.9807 9.8768 30.782C11.8115 31.5833 13.9059 31.9999 16 31.9999C18.0941 31.9999 20.1882 31.5833 22.1229 30.782C24.0576 29.9807 25.833 28.7945 27.3136 27.3139C28.7942 25.8329 29.9805 24.0575 30.7821 22.1228C31.5834 20.1881 32 18.094 32 15.9999Z" fill="white"/>
<path fill-rule="evenodd" clip-rule="evenodd" d="M11.8547 3.38361C13.3453 2.89369 14.9382 2.66969 16.5162 2.73017C18.0944 2.79065 19.6579 3.13593 21.113 3.74393C22.5683 4.35193 23.9152 5.22297 25.0675 6.29753C26.5917 7.71929 27.775 9.49753 28.4848 11.4867C29.1949 13.4761 29.4314 15.6764 29.1574 17.7711C28.8838 19.8659 28.0998 21.8553 26.9139 23.566C25.728 25.2767 24.1398 26.7084 22.2746 27.7004C20.4093 28.6921 18.2662 29.2438 16.1539 29.2758C14.0416 29.3078 11.9597 28.8204 10.095 27.895C8.23073 26.9695 6.58337 25.6063 5.33249 23.9036C4.08161 22.2009 3.22721 20.1587 2.88801 18.0748C2.54881 15.9907 2.72481 13.8646 3.37473 11.8812C3.86593 10.3817 4.62817 8.96409 5.6048 7.73561H4.12033V5.28185H9.93696V10.7135H7.48321V9.22937C6.68321 10.2355 6.05857 11.3967 5.65633 12.6255C5.12417 14.2511 4.98081 15.9951 5.25633 17.6969C5.59873 19.8137 6.58881 21.8649 8.06657 23.4457C9.83425 25.3363 12.2995 26.5542 14.8659 26.8207C17.432 27.0873 20.0992 26.4028 22.2173 24.9286C24.3354 23.4543 25.905 21.1903 26.5421 18.6899C27.1792 16.1894 26.8838 13.4524 25.735 11.142C24.5862 8.83161 22.5837 6.94841 20.1891 5.95897C17.7946 4.96921 15.0077 4.87385 12.6038 5.66361L11.8547 3.38361Z" fill="url(#paint0_linear)"/>
<path d="M11.1672 11.3327L12.3327 10.6635L12.4895 10.933L16.7868 8.455L16.4725 8.2744L16.1568 8.0903L16 8L9 12.0439V12.2245L11.0097 11.0618L11.1672 11.3327V11.3327Z" fill="black"/>
<path d="M11.1672 13.8786L14.5349 11.9326L14.6924 12.2063L18.989 9.7269L18.6747 9.5435L18.3597 9.3629L18.2022 9.274L9 14.587V14.7676L11.0097 13.6049L11.1672 13.8786V13.8786Z" fill="black"/>
<path d="M11.1672 15.1512L15.636 12.571L15.7942 12.8419L20.0894 10.3597L19.7758 10.1819L19.4615 9.9978L19.3033 9.9075L9 15.8561V16.0395L11.0097 14.8789L11.1672 15.1512V15.1512Z" fill="black"/>
<path d="M11.1672 16.4217L16.7686 13.1884L16.9275 13.4593L21.1912 10.9981L20.8776 10.814L20.5619 10.6334L20.4051 10.5431L9 17.1301V17.3107L11.0097 16.148L11.1672 16.4217V16.4217Z" fill="black"/>
<path d="M11.1672 17.6915L17.8704 13.8226L18.0279 14.0963L22.2923 11.6316L21.978 11.4524L21.6637 11.269L21.5055 11.1787L9 18.3992V18.5798L11.0097 17.4199L11.1672 17.6915V17.6915Z" fill="black"/>
<path d="M22.7648 11.906L22.6073 11.8143L9 19.6732V19.8538L11.0097 18.6939L11.1672 18.9648L17.8704 15.0966L18.0279 15.3675L23 12.4982V12.1342V12.0439L22.7648 11.906V11.906Z" fill="black"/>
<path d="M9.86169 20.6252L10.9894 19.9749L11.1462 20.2465L17.8382 16.3832L17.995 16.6576L23 13.7673V13.4033V13.0386V12.858L9.70769 20.5349L9.86169 20.6252V20.6252Z" fill="black"/>
<path d="M17.8382 17.6572L17.995 17.9316L23 15.0413V14.6773V14.3126V14.132L10.8088 21.1705L10.967 21.2608L12.1108 20.5986L12.269 20.873" fill="black"/>
<path d="M12.0674 21.8978L13.2126 21.2342L13.3694 21.5079L17.8382 18.9263L17.995 19.2007L23 16.3111V15.9464V15.5852V15.4025L11.9078 21.8047L12.0674 21.8978V21.8978Z" fill="black"/>
<path d="M13.1678 22.5334L14.313 21.8726L14.4712 22.1435L17.8382 20.2003L17.995 20.4712L23 17.5816V17.2204V16.8557V16.6751L13.011 22.4431L13.1678 22.5334V22.5334Z" fill="black"/>
<path d="M14.1128 23.078L14.2703 23.1683L15.4176 22.5068L15.5723 22.7805L17.8382 21.4701L17.995 21.7438L23 18.8542V18.4895V18.1255V17.9442L14.1128 23.078V23.078Z" fill="black"/>
<path d="M15.3707 23.8067L16.5152 23.1417L16.6727 23.4161L17.8382 22.7406L17.995 23.0143L23 20.1275V19.7635V19.3988V19.2182L15.2132 23.7164L15.3707 23.8067V23.8067Z" fill="black"/>
<path d="M17.8886 9.0899L17.5729 8.9093V8.9093L17.2593 8.7287L17.1018 8.6356L9 13.313V13.4936L11.0097 12.3351L11.1672 12.6046L13.4331 11.297L13.5948 11.5714L17.8886 9.0899V9.0899Z" fill="black"/>
<defs>
<linearGradient id="paint0_linear" x1="2.04343" y1="13.297" x2="15.2222" y2="29.5764" gradientUnits="userSpaceOnUse">
<stop stop-color="#004CFF"/>
<stop offset="0.252131" stop-color="#00E0FB"/>
<stop offset="0.505709" stop-color="#87FF70"/>
<stop offset="0.755054" stop-color="#F8F500"/>
<stop offset="1" stop-color="#FF1A00"/>
</linearGradient>
</defs>
</svg>

<svg width="32" height="32" fill="none" xmlns="http://www.w3.org/2000/svg"><path fill-rule="evenodd" clip-rule="evenodd" d="M32 16c0-2.094-.417-4.188-1.218-6.123a16.058 16.058 0 00-3.468-5.19 16.051 16.051 0 00-5.191-3.47A16.054 16.054 0 0016 0c-2.094 0-4.188.417-6.123 1.218a16.055 16.055 0 00-5.19 3.468 16.05 16.05 0 00-3.47 5.191A16.049 16.049 0 000 16c0 2.094.416 4.188 1.218 6.123a16.056 16.056 0 003.468 5.19 16.055 16.055 0 005.19 3.469A16.056 16.056 0 0016 32c2.094 0 4.188-.417 6.123-1.218a16.051 16.051 0 005.19-3.468 16.063 16.063 0 003.47-5.191A16.054 16.054 0 0032 16z" fill="#fff"/><path fill-rule="evenodd" clip-rule="evenodd" d="M11.855 3.384a13.267 13.267 0 0113.213 2.914 13.155 13.155 0 013.417 5.189c.71 1.99.946 4.19.672 6.284a13.194 13.194 0 01-2.243 5.795 13.207 13.207 0 01-4.64 4.134 13.622 13.622 0 01-6.12 1.576 13.207 13.207 0 01-6.059-1.381 13.19 13.19 0 01-4.763-3.991 13.662 13.662 0 01-2.444-5.83 13.13 13.13 0 01.487-6.193 13.392 13.392 0 012.23-4.145H4.12V5.282h5.817v5.431H7.483V9.23a10.961 10.961 0 00-1.827 3.397 10.787 10.787 0 00-.4 5.07 11.107 11.107 0 002.81 5.75 10.952 10.952 0 006.8 3.375 11.023 11.023 0 007.351-1.892 10.999 10.999 0 004.325-6.24c.637-2.5.342-5.237-.807-7.547a10.919 10.919 0 00-5.546-5.183c-2.394-.99-5.181-1.085-7.585-.295l-.75-2.28z" fill="url(#paint0_linear)"/><path d="M11.167 11.333l1.166-.67.156.27 4.298-2.478-.314-.18-.316-.185L16 8l-7 4.044v.18l2.01-1.162.157.27zM11.167 13.879l3.368-1.946.157.273 4.297-2.48-.314-.183-.315-.18-.158-.089L9 14.587v.18l2.01-1.162.157.274zM11.167 15.151l4.469-2.58.158.27 4.295-2.481-.313-.178-.314-.184-.159-.09L9 15.856v.184l2.01-1.161.157.272zM11.167 16.422l5.602-3.234.159.271L21.19 11l-.313-.185-.316-.18-.157-.09L9 17.13v.18l2.01-1.162.157.274zM11.167 17.692l6.703-3.87.158.274 4.264-2.464-.314-.18-.314-.183-.159-.09L9 18.399v.18l2.01-1.16.157.273zM22.765 11.906l-.158-.092L9 19.674v.18l2.01-1.16.157.27 6.703-3.867.158.27L23 12.498V12.044l-.235-.138zM9.862 20.625l1.127-.65.157.271 6.692-3.863.157.275L23 13.768V12.857L9.708 20.535l.154.09zM17.838 17.657l.157.275L23 15.042V14.131l-12.191 7.039.158.09 1.144-.662.158.274M12.067 21.898l1.146-.664.156.274 4.47-2.582.156.275L23 16.31v-.909l-11.092 6.403.16.093zM13.168 22.533l1.145-.66.158.27 3.367-1.943.157.271L23 17.581v-.905l-9.989 5.767.157.09zM14.113 23.078l.157.09 1.148-.661.154.273 2.266-1.31.157.274L23 18.854V17.944l-8.887 5.134zM15.37 23.807l1.145-.665.158.274 1.165-.675.157.273L23 20.128v-.909l-7.787 4.497.158.09zM17.889 9.09l-.316-.18-.314-.181-.157-.093L9 13.313v.18l2.01-1.158.157.27 2.266-1.308.162.274 4.294-2.481z" fill="#000"/><defs><linearGradient id="paint0_linear" x1="2.043" y1="13.297" x2="15.222" y2="29.576" gradientUnits="userSpaceOnUse"><stop stop-color="#004CFF"/><stop offset=".252" stop-color="#00E0FB"/><stop offset=".506" stop-color="#87FF70"/><stop offset=".755" stop-color="#F8F500"/><stop offset="1" stop-color="#FF1A00"/></linearGradient></defs></svg>
